X: 67
T: Lady Charlotte Durham
R:Strathspey
C:Nathaniel Gow
S:MacDonald - Skye Collection
N:pg.185
M:C
L:1/8
K:G
D|G<G g<g ~G>d BG|GG ~GA/B/ E3 (F/G/)|DD D>E F>G A>B|
{d}c>A {c}B>G B/A/G/F/ EA|G<G g<g ~g>d BG|GG ~GA/B/ E3 (F/G/)|
DD D>E FGAB|c(d/e/) dF G3:|
|:B/c/|dd ~dg dd d(B/c/)|d~d (eg) d3 (B/c/)|dd {d}b>a {a}g>f {f}e>d|
{d}c>B {B}A>G {G}F>E FD|G<G g<g (g/b/)(a/f/) (g/d/)(B/G/)|
GG ~GA/B/ E3 (F/G/)|DD DE ~F>G ~A>B|c(d/e/) dF G3:|


